X: 37967
T: Spanncomp, The
R: jig
M: 6/8
K: Gminor
|:DAA DAA|DAA ABA|DAA ABc|BAG FGE|
DAA DAA|DAA ABc|g^fe dcB|AG^F G3:|
|:DAA DAA|EBB EBB|Fcc cde|dcB AG^F|
DAA DAA|EBB EBB|cde dcB|1 AG^F G3:|2 AG^F G2d||
|:g^fg aba|g^fg edc|g^fg edc|BAG ^F2d|
g^fg aba|g^fg edc|Bcd edc|BAG G3:|

